X:1
T:How Firm a Foundation
T:Text: J. Rippon's Selection of Hymns, 1787, alt.; based on Isiah 43:1-5 Tune: J. Funk's A Compilation of Genuine Church Music, 1832 Harmonization under copyright; for copyrighted material see Psalter Hymnal 500
T:11 11 11 11 FOUNDATION www.hymnary.org/text/how_firm_a_foundation_ye_saints_of
T:How Firm a Foundation
T:This hymn is in the public domain. You may freely use this score for personal and congregational worship. If you reproduce the score, please credit Hymnary.org as the source. 
T:This hymn is in the public domain. You may freely use this score for personal and congregational worship. If you reproduce the score, please credit Hymnary.org as the source. 
Z:This hymn is in the public domain. You may freely use this score for personal and congregational worship. If you reproduce the score, please credit Hymnary.org as the source.
L:1/8
M:2/2
K:G
V:1 treble nm="SOPRANO ALTO" snm="S. A."
V:1
"^1""^2""^3""^4""^5" (D2 E2) | G4 E2 G2 | D4 G2 G2 | B4 A2 B2 | D4 | (D2 E2) | G4 E2 G2 | %7
w: How *|firm a foun-|da- tion, you|saints of the|Lord,|is *|laid for your|
w: "Fear *|not, I am|with you, O|be not dis-|mayed,|for *|I am your|
w: "When _|through the deep|wa- ters I|call you to|go,|the *|riv- ers of|
w: "When _|through fi- ery|tri- als your|path- way shall|lie,|my *|grace all- suf-|
w: "The *|soul that on|Je- sus has|leaned for re-|pose|I *|will not, I|
 D4 G2 G2 | B4 A2 A2 | G4 | B4 | d4 B2 d2 | G4 G2 G2 | B4 A2 B2 | D4 |1 (D2 E2) | G4 E2 G2 | %17
w: faith in his|ex- cel- lent|Word!|What|more can he|say than to|you he has|said,|to *|you who for|
w: God and will|still give you|aid;|I'll|strength- en you,|help you, and|cause you to|stand,|up- *|held by my|
w: sor- row shall|not o- ver-|flow,|for|I will be|with you in|trou- ble to|bless,|and *|sanc- ti- fy|
w: fi- cient shall|be your sup-|ply;|the|flame shall not|hurt you; I|on- ly de-|sign|your *|dross to con-|
w: will not de-|sert to its|foes;|that|soul, though all|hell should en-|deav- or to|shake,|I'll *|nev- er, no|
 D4 G2 G2 | B4 A2 A2 | G4 x4 |] %20
w: ref- uge to|Je- sus have|fled?|
w: right- eous, om-|nip- o- tent|hand.|
w: to you your|deep- est dis-|tress.|
w: sume and your|gold to re-|fine.|
w: nev- er, no|nev- er for-|sake!"|

